X: 24
T: 21. THE KING'S HEAD
B: Sam Bayard, "Hill Country Tunes" 1944 #21
S: Played by Mrs Sarah Armstrong, (near) Derry, PA, Nov 5 1943.
N: This is the other name of Soldier's Joy, found in many old collections.
R: reel
M: 4/4
L: 1/8
Z: 2010 John Chambers <jc:trillian.mit.edu>
K: D
B2 |\
A2FG [AD]FDF | [A2D2][d2D2] [d2D2]"a."cB |\
A2FG [AD]FDF | {F}GFED E2FG |
A2FG [AD]FDF | [A2D2][d2D2] [d2D2]e2 |\
f2af e^/gfe | d2[f2d2] Hd2 || de |
f2de f2"b."af | e2cd e2g2 |\
f2de fgaf| edcB A4 |
f2de f2"b."af | e2cd e2g2 |\
f2af e^/gfe | d2[f2d2] Hd2 |]
P: VAR:
"a."B2 || "b."a2 |] y8 y8 y8 y8 y8 y8 y8 y8

%%sep 2 1 500
%%sep 1 1 500

